!!!COM: Palestrina, Giovanni Perluigi da
!!!OPR: Missa De Beata Marie Virginis (I)
!!!OMD: Sanctus
!!!OTL: First Section
**kern	**kern	**kern	**kern	**kern
*Ibass	*Itenor	*Itenor	*Icalto	*Icant
!Bassus	!Tenor 2	!Tenor 1	!Altus	!Cantus
*clefF4	*clefGv2	*clefGv2	*clefG2	*clefG2
*k[]	*k[]	*k[]	*k[]	*k[]
*G:mix	*G:mix	*G:mix	*G:mix	*G:mix
*M4/2	*M4/2	*M4/2	*M4/2	*M4/2
=1	=1	=1	=1	=1
0r	0r	1g	0r	0r
.	.	1e	.	.
=2	=2	=2	=2	=2
0r	0r	1d	0r	1dd
.	.	1e	.	1b
=3	=3	=3	=3	=3
0r	0r	1f	1r	1a
.	.	1e	1g	1b
=4	=4	=4	=4	=4
1r	0r	[0g	1e	1.cc
1G	.	.	1d	.
.	.	.	.	2b
=5	=5	=5	=5	=5
1E	1r	1g]	1e	4g
.	.	.	.	4a
.	.	.	.	4b
.	.	.	.	4cc#
1D	1d	1a	1f	1dd
=6	=6	=6	=6	=6
1E	1B	2g	2e	0r
.	.	1e	2g	.
1F	1A	.	1a	.
.	.	2d	.	.
=7	=7	=7	=7	=7
1E	1B	1.e	2.g	2r
.	.	.	.	1ee
.	.	.	4f	.
1A	1c	.	4e	.
.	.	.	4d	.
.	.	2A	2c	2ff#
=8	=8	=8	=8	=8
1G	1B	2r	4d	2gg
.	.	.	4c#	.
.	.	2.d	4d	4dd
.	.	.	4e	4cc#
[1D	[1d	.	2.f	4dd
.	.	4c#	.	4ee
.	.	4d	.	[2ff
.	.	4e	4g	.
=9	=9	=9	=9	=9
1D]	1d]	4f	2a	4ff]
.	.	4g	.	4ee
.	.	2.a	2f	1dd
1A	1e	.	1a	.
.	.	4g	.	.
.	.	2e	.	2cc#
=10	=10	=10	=10	=10
[0D	[0d	[0f#	[0a	[0dd
=11	=11	=11	=11	=11
0D]	0d]	0f#]	0a]	0dd]
*-	*-	*-	*-	*-
!!!CDT: 1525/^1526/-1594/2/2
!!!OCY: Italia
!!!AGN: Mass (Paraphrase)
!!!AST: renaissance, vocal
!!!ASW: Gregorian Mass
!!!PWK: Masses, Book Mantuan I
!!!RNB: Cadence finals: D
!!!YOR: Le Opere Complete, v. 18, p. 83
!!!YOO: Rome, Italy: Fratelli Scalera
!!!END: 1992//
!!!EED: John Miller
!!!YEC: Copyright 2000, John Miller
!!!YEN: United States of America
!!!YEM: Rights to all derivative electronic formats reserved.
!!!YEM: Refer to licensing agreement for further details.
!!!YEM: This file must be accompanied by the licensing agreement.
!!!YEM: A copy of the licensing agreement may be found at http://www.music-cog.ohio-state.edu/HumdrumDatabases/Palestrina/license.txt
!!!EMD: converted to Humdrum by Bret Aarden
